svgs/duotone/mug.svg

<svg xmlns="http://www.w3.org/2000/svg" viewBox="0 0 576 512"><!--! Font Awesome Pro 6.3.0 by @fontawesome - https://fontawesome.com License - https://fontawesome.com/license (Commercial License) Copyright 2023 Fonticons, Inc. --><defs><style>.fa-secondary{opacity:.4}</style></defs><path class="fa-primary" d="M416 352c0 53-43 96-96 96H128c-53 0-96-43-96-96V88C32 72.98 44.42 64 56 64H416V352z"/><path class="fa-secondary" d="M416 128V64h32c70.75 0 128 57.25 128 128s-57.25 128-128 128h-32V256h32c35.38 0 64-28.62 64-64s-28.62-64-64-64H416z"/></svg>

<svg xmlns="http://www.w3.org/2000/svg" viewBox="0 0 576 512"><!-- Font Awesome Pro 6.0.0-alpha2 by @fontawesome - https://fontawesome.com License - https://fontawesome.com/license (Commercial License) --><defs><style>.fa-secondary{opacity:.4}</style></defs><path d="M416 128V64H448C518.75 64 576 121.25 576 192S518.75 320 448 320H416V256H448C483.375 256 512 227.375 512 192S483.375 128 448 128H416Z" class="fa-secondary"/><path d="M416 352C416 405 373 448 320 448H128C75 448 32 405 32 352V88C32 72.976 44.419 64 56 64H416V352Z" class="fa-primary"/></svg>
